packages/dnb-eufemia/assets/icons/wheelchair_medium.svg

<svg width="24" height="24" viewBox="0 0 24 24" fill="none" xmlns="http://www.w3.org/2000/svg">
<path d="M13.6196 20.9102C11.5205 23.3673 7.66039 23.7093 5.14196 21.6614C2.62354 19.6135 2.27295 15.8474 4.372 13.3904M12.0054 3.56926C12.0054 4.98822 10.8264 6.13852 9.37197 6.13852C7.91757 6.13852 6.73855 4.98822 6.73855 3.56926C6.73855 2.1503 7.91757 1 9.37197 1C10.8264 1 12.0054 2.1503 12.0054 3.56926ZM18.3758 21.0265L15.5166 17.6791C15.2356 17.3479 14.8037 17.1497 14.3629 17.1496H8.99577C8.17615 17.1496 7.49096 16.4811 7.49096 15.6815V9.80889C7.49096 9.00924 8.17615 8.34074 8.99577 8.34074H12.817C14.7537 8.34074 14.7537 11.277 12.817 11.277H10.5006V14.2133H14.3629C15.6869 14.212 16.9848 14.8055 17.831 15.7989L20.6831 19.1453C21.8326 20.6082 19.5744 22.312 18.3758 21.0265Z" stroke="black" stroke-width="1.5" stroke-linecap="round" stroke-linejoin="round"/>
</svg>

<svg width="24" height="24" viewBox="0 0 24 24" fill="none" xmlns="http://www.w3.org/2000/svg"><path d="M13.62 20.91c-2.1 2.457-5.96 2.8-8.478.751-2.518-2.048-2.87-5.814-.77-8.27m7.633-9.822c0 1.42-1.179 2.57-2.633 2.57s-2.633-1.15-2.633-2.57C6.739 2.15 7.918 1 9.372 1s2.633 1.15 2.633 2.57Zm6.37 17.457-2.858-3.347a1.53 1.53 0 0 0-1.154-.53H8.996c-.82 0-1.505-.668-1.505-1.468V9.81c0-.8.685-1.468 1.505-1.468h3.821c1.937 0 1.937 2.936 0 2.936h-2.316v2.936h3.862A4.6 4.6 0 0 1 17.83 15.8l2.852 3.346c1.15 1.463-1.109 3.167-2.307 1.881Z" stroke="#000" stroke-width="1.5" stroke-linecap="round" stroke-linejoin="round"/></svg>
